src/assets/images/map/markers/found/icon_215.svg

<?xml version="1.0" encoding="UTF-8" standalone="no"?>
<svg
   xmlns:dc="http://purl.org/dc/elements/1.1/"
   xmlns:cc="http://creativecommons.org/ns#"
   xmlns:rdf="http://www.w3.org/1999/02/22-rdf-syntax-ns#"
   xmlns:svg="http://www.w3.org/2000/svg"
   xmlns="http://www.w3.org/2000/svg"
   xmlns:sodipodi="http://sodipodi.sourceforge.net/DTD/sodipodi-0.dtd"
   xmlns:inkscape="http://www.inkscape.org/namespaces/inkscape"
   width="128pt"
   height="157pt"
   viewBox="0 0 128 157"
   version="1.1"
   id="svg5"
   sodipodi:docname="icon_215.svg"
   inkscape:version="0.92.1 r15371">
  <metadata
     id="metadata11">
    <rdf:RDF>
      <cc:Work
         rdf:about="">
        <dc:format>image/svg+xml</dc:format>
        <dc:type
           rdf:resource="http://purl.org/dc/dcmitype/StillImage" />
      </cc:Work>
    </rdf:RDF>
  </metadata>
  <defs
     id="defs9" />
  <sodipodi:namedview
     pagecolor="#ffffff"
     bordercolor="#666666"
     borderopacity="1"
     objecttolerance="10"
     gridtolerance="10"
     guidetolerance="10"
     inkscape:pageopacity="0"
     inkscape:pageshadow="2"
     inkscape:window-width="1366"
     inkscape:window-height="685"
     id="namedview7"
     showgrid="false"
     inkscape:zoom="1.1273885"
     inkscape:cx="-94.728814"
     inkscape:cy="104.66667"
     inkscape:window-x="0"
     inkscape:window-y="0"
     inkscape:window-maximized="1"
     inkscape:current-layer="surface1" />
  <g
     id="surface1">
    <path
       style="fill:#00ff00;fill-opacity:1;fill-rule:nonzero;stroke:none"
       d="m 55.6875,52.34375 c -6.371094,3.046875 -9.558594,8.027344 -9.558594,14.945312 0,6.921876 3.1875,12.042969 9.558594,15.363282 V 52.34375 M 48.207031,44.457031 55.6875,41.550781 V 22.867188 C 44.050781,25.359375 34.492188,31.035156 27.011719,39.890625 19.253906,48.46875 15.375,58.847656 15.375,71.027344 c 0,11.625 3.878906,21.863281 11.636719,30.722656 7.480469,9.13281 17.039062,14.53125 28.675781,16.19141 v -17.02344 l -1.246094,2.07812 -6.648437,-2.49218 2.078125,-8.304691 v -0.414063 l -0.417969,-0.414062 -7.0625,-5.398438 -0.417969,-0.414062 -8.308594,3.734375 -3.328124,-5.8125 L 36.988281,78.5 37.402344,78.085938 36.988281,77.667969 35.324219,68.121094 v -0.414063 h -0.414063 l -7.898437,-2.078125 0.832031,-7.054687 8.726562,0.414062 v -0.414062 l 4.574219,-8.304688 0.414063,-0.414062 -0.414063,-0.832031 -4.574219,-5.398438 5.402344,-4.566406 6.234375,5.8125 v -0.414063 m 33.664063,22.832031 c 0,-6.917968 -3.1875,-11.898437 -9.558594,-14.945312 v 30.308594 c 6.371094,-3.320313 9.558594,-8.441406 9.558594,-15.363282 m 4.15625,-28.230468 5.402344,4.566406 -4.574219,5.398438 -0.414063,0.832031 0.414063,0.414062 4.574219,8.304688 v 0.414062 h 0.414062 l 8.3125,-0.414062 0.83203,7.054687 -7.898436,2.078125 h -0.414063 v 0.414063 l -2.078125,9.546875 v 0.417969 L 91.011719,78.5 l 6.652343,4.980469 -3.742187,5.8125 -7.894531,-3.734375 -0.417969,0.414062 -7.0625,5.398438 -0.417969,0.414062 v 0.414063 l 2.078125,8.304691 -6.648437,2.49218 -1.246094,-2.07812 v 17.02344 C 83.949219,116.28125 93.644531,110.88281 101.40234,101.75 108.88281,92.890625 112.625,82.652344 112.625,71.027344 112.625,58.847656 108.88281,48.46875 101.40234,39.890625 93.644531,31.035156 83.949219,25.359375 72.3125,22.867188 v 18.683593 l 7.0625,2.90625 0.832031,0.414063 v -0.414063 l 5.820313,-5.398437 M 64.414062,0.0351562 66.910156,5.433594 70.648438,14.980469 C 86.996094,16.917969 100.57031,24.253906 111.375,36.984375 122.45703,49.4375 128,64.382812 128,81.820312 c 0,16.882813 -5.54297,31.828128 -16.625,44.839848 -10.80469,12.45312 -24.242188,19.64843 -40.308594,21.58593 v 2.07813 l -1.664062,4.98047 -4.988282,1.66015 -4.984374,-1.66015 -2.496094,-4.98047 v -2.07813 C 40.589844,146.30859 27.152344,139.11328 16.625,126.66016 5.542969,113.64844 0,98.703125 0,81.820312 0,64.382812 5.679688,49.4375 17.039062,36.984375 27.84375,24.253906 41.417969,16.917969 57.765625,14.980469 l 3.742187,-9.546875 2.90625,-5.3984378"
       id="path2"
       inkscape:connector-curvature="0" />
  </g>
</svg>

<?xml version="1.0" encoding="UTF-8"?>
<svg xmlns="http://www.w3.org/2000/svg" xmlns:xlink="http://www.w3.org/1999/xlink" width="128pt" height="157pt" viewBox="0 0 128 157" version="1.1">
<g id="surface1">
<path style=" stroke:none;fill-rule:nonzero;fill:rgb(100%,100%,100%);fill-opacity:1;" d="M 55.6875 52.34375 C 49.316406 55.390625 46.128906 60.371094 46.128906 67.289062 C 46.128906 74.210938 49.316406 79.332031 55.6875 82.652344 L 55.6875 52.34375 M 48.207031 44.457031 L 55.6875 41.550781 L 55.6875 22.867188 C 44.050781 25.359375 34.492188 31.035156 27.011719 39.890625 C 19.253906 48.46875 15.375 58.847656 15.375 71.027344 C 15.375 82.652344 19.253906 92.890625 27.011719 101.75 C 34.492188 110.882812 44.050781 116.28125 55.6875 117.941406 L 55.6875 100.917969 L 54.441406 102.996094 L 47.792969 100.503906 L 49.871094 92.199219 L 49.871094 91.785156 L 49.453125 91.371094 L 42.390625 85.972656 L 41.972656 85.558594 L 33.664062 89.292969 L 30.335938 83.480469 L 36.988281 78.5 L 37.402344 78.085938 L 36.988281 77.667969 L 35.324219 68.121094 L 35.324219 67.707031 L 34.910156 67.707031 L 27.011719 65.628906 L 27.84375 58.574219 L 36.570312 58.988281 L 36.570312 58.574219 L 41.144531 50.269531 L 41.558594 49.855469 L 41.144531 49.023438 L 36.570312 43.625 L 41.972656 39.058594 L 48.207031 44.871094 L 48.207031 44.457031 M 81.871094 67.289062 C 81.871094 60.371094 78.683594 55.390625 72.3125 52.34375 L 72.3125 82.652344 C 78.683594 79.332031 81.871094 74.210938 81.871094 67.289062 M 86.027344 39.058594 L 91.429688 43.625 L 86.855469 49.023438 L 86.441406 49.855469 L 86.855469 50.269531 L 91.429688 58.574219 L 91.429688 58.988281 L 91.84375 58.988281 L 100.15625 58.574219 L 100.988281 65.628906 L 93.089844 67.707031 L 92.675781 67.707031 L 92.675781 68.121094 L 90.597656 77.667969 L 90.597656 78.085938 L 91.011719 78.5 L 97.664062 83.480469 L 93.921875 89.292969 L 86.027344 85.558594 L 85.609375 85.972656 L 78.546875 91.371094 L 78.128906 91.785156 L 78.128906 92.199219 L 80.207031 100.503906 L 73.558594 102.996094 L 72.3125 100.917969 L 72.3125 117.941406 C 83.949219 116.28125 93.644531 110.882812 101.402344 101.75 C 108.882812 92.890625 112.625 82.652344 112.625 71.027344 C 112.625 58.847656 108.882812 48.46875 101.402344 39.890625 C 93.644531 31.035156 83.949219 25.359375 72.3125 22.867188 L 72.3125 41.550781 L 79.375 44.457031 L 80.207031 44.871094 L 80.207031 44.457031 L 86.027344 39.058594 M 64.414062 0.0351562 L 66.910156 5.433594 L 70.648438 14.980469 C 86.996094 16.917969 100.570312 24.253906 111.375 36.984375 C 122.457031 49.4375 128 64.382812 128 81.820312 C 128 98.703125 122.457031 113.648438 111.375 126.660156 C 100.570312 139.113281 87.132812 146.308594 71.066406 148.246094 L 71.066406 150.324219 L 69.402344 155.304688 L 64.414062 156.964844 L 59.429688 155.304688 L 56.933594 150.324219 L 56.933594 148.246094 C 40.589844 146.308594 27.152344 139.113281 16.625 126.660156 C 5.542969 113.648438 0 98.703125 0 81.820312 C 0 64.382812 5.679688 49.4375 17.039062 36.984375 C 27.84375 24.253906 41.417969 16.917969 57.765625 14.980469 L 61.507812 5.433594 L 64.414062 0.0351562 "/>
</g>
</svg>
